X:1
T:Lord Lovel
B:One Hundred English Folksongs, Ed C Sharp, ISBN 0-486-23192-5
Z:Cecil Sharp
F:http://www.folkinfo.org/songs
M:6/8     %Meter
L:1/8     %
K:E
E |E E E G G G |F G F E2 G |B B B e2 G | (B3 B2) 
w:Lord Lov-el he stood at his own cas-tle gate, A-comb-ing his milk-white steed_
B |e2 e c2 G |A2 B E2 F |G A G F G F |
w:When up came La-dy Nan-cy Belle. To wish_ her lov-er good 
D2 F G2 G/A/ |B c B A G F |E3 |]
w:speed, good speed, To_ wish_her lov-er good speed 